X:4536
T:My wife's a wanton wee thing
O:england
R:Jig
M:6/8
L:1/8
K:G
A |\
dAd efe | d3 A2B | cdc cAF | c3 A2F | \
dAd efe | d3 a2g | faf ece | d3 d2 :|
|:e |\
fgf dAd | f3 a2f | efe cAc | e3 g2e | \
fgf dAd | f3 a2g | fdf ece | d3 d2 :|


